static/img/svg/bar-chart-square.svg

<svg xmlns="http://www.w3.org/2000/svg" width="24" height="24" viewBox="0 0 24 24"><path d="M3,4v16c0,0.552,0.447,1,1,1h16c0.553,0,1-0.448,1-1V4c0-0.552-0.447-1-1-1H4C3.447,3,3,3.448,3,4z M5,5h14v14H5V5z"/><path d="M11 7H13V17H11zM15 10H17V17H15zM7 12H9V17H7z"/></svg>

<svg xmlns="http://www.w3.org/2000/svg" width="24" height="24" viewBox="0 0 24 24"><path d="M3 4v16a1 1 0 0 0 1 1h16a1 1 0 0 0 1-1V4a1 1 0 0 0-1-1H4a1 1 0 0 0-1 1zm2 1h14v14H5V5z"/><path d="M11 7h2v10h-2zM15 10h2v7h-2zM7 12h2v5H7z"/></svg>
